X:1
T:Chios, 10.10.11.11
T:Chios, 10.10.11.11
T:Chalres Hutchinson Gabriel, 1912
T:Public Domain Courtesy of the Cyber Hymnal™
C:Chalres Hutchinson Gabriel, 1912
Z:Public Domain
Z:Courtesy of the Cyber Hymnal™
%%score ( 1 2 ) ( 3 4 )
L:1/8
Q:1/4=125
M:2/2
K:G
V:1 treble 
V:2 treble 
V:3 bass 
V:4 bass 
V:1
 D2 | [DG]4 [DG]2 [DG]2 | [DG]6 [GB]2 | [Gd]4 [Fd]2 [Ad]2 | [Gd]6 [^EB]2 | [Fc]4 A2 [Fd]2 | %6
 [GB]4 [DG]4 | E4 [^CA]2 [CA]2 | D6 D2 | A4 [^DA]2 [FB]2 | [EG]4 [EG]2 [EG]2 | G4 [^CG]2 [CA]2 | %12
 [DF]4 D4 | [DG]4 [DA]2 [DA]2 | [DB]4 [Dd]2 [Ec]2 | [DB]4 [DA]2 [DA]2 | [DG]6 |] %17
V:2
 D2 | x8 | x8 | x8 | x8 | x4 A2 x2 | x8 | (^C2 D2) x4 | D6 D2 | (^D2 E2) x4 | x8 | (E2 D2) x4 | %12
 x4 D4 | x8 | x8 | x8 | x6 |] %17
V:3
 D,2 | [G,,B,]4 [B,,B,]2 [D,B,]2 | [G,B,]6 [G,D]2 | [G,B,]4 [D,A,]2 [D,C]2 | [G,B,]6 [^G,D]2 | %5
 [A,D]4 [F,D]2 [D,D]2 | [G,D]4 [B,,G,]4 | ([C,G,]2 [B,,^G,]2) [A,,=G,]2 [A,,G,]2 | %8
 [D,F,]6 [D,F,]2 | ([D,F,]2 [C,E,]2) [B,,F,]2 [^D,B,]2 | [E,B,]4 [E,B,]2 [D,_B,]2 | %11
 A,4 [A,,A,]2 [A,,A,]2 | [D,A,]4 [C,F,]4 | [B,,G,]4 [D,F,]2 [D,F,]2 | G,4 [B,,G,]2 [C,G,]2 | %15
 [D,G,]4 [D,C]2 [D,C]2 | [G,,B,]6 |] %17
V:4
 D,2 | x8 | x8 | x8 | x8 | x8 | x8 | x8 | x8 | x8 | x8 | (^C,2 B,,2) x4 | x8 | x8 | G,4 x4 | x8 | %16
 x6 |] %17

